tools/download-figma-icons/icons/solid/female.svg

<svg width="24" height="24" viewBox="0 0 24 24" fill="none" xmlns="http://www.w3.org/2000/svg">
<path d="M19.5 7.5C19.5 3.3675 16.1325 0 12 0C7.8675 0 4.5 3.3675 4.5 7.5C4.5 11.1225 7.08 14.1525 10.5 14.85V18H8.25C7.8375 18 7.5 18.3375 7.5 18.75V20.25C7.5 20.6625 7.8375 21 8.25 21H10.5V23.25C10.5 23.6625 10.8375 24 11.25 24H12.75C13.1625 24 13.5 23.6625 13.5 23.25V21H15.75C16.1625 21 16.5 20.6625 16.5 20.25V18.75C16.5 18.3375 16.1625 18 15.75 18H13.5V14.85C16.92 14.1525 19.5 11.1225 19.5 7.5ZM7.5 7.5C7.5 5.0175 9.5175 3 12 3C14.4825 3 16.5 5.0175 16.5 7.5C16.5 9.9825 14.4825 12 12 12C9.5175 12 7.5 9.9825 7.5 7.5Z" fill="black"/>
</svg>

<svg xmlns="http://www.w3.org/2000/svg" width="24" height="24" fill="none" viewBox="0 0 24 24"><path fill="currentColor" d="M19.5 7.5C19.5 3.368 16.133 0 12 0 7.868 0 4.5 3.368 4.5 7.5c0 3.623 2.58 6.653 6 7.35V18H8.25a.75.75 0 0 0-.75.75v1.5c0 .413.338.75.75.75h2.25v2.25c0 .413.338.75.75.75h1.5c.412 0 .75-.337.75-.75V21h2.25c.413 0 .75-.337.75-.75v-1.5a.75.75 0 0 0-.75-.75H13.5v-3.15c3.42-.697 6-3.727 6-7.35m-12 0C7.5 5.018 9.518 3 12 3s4.5 2.018 4.5 4.5S14.483 12 12 12a4.504 4.504 0 0 1-4.5-4.5"/></svg>
